icons/2_Variations/V2EX bg.var.svg

<svg width="1024" height="1024" viewBox="0 0 1024 1024" fill="none" xmlns="http://www.w3.org/2000/svg">
<g clip-path="url(#clip0_3_317)">
<path d="M512 1024C794.77 1024 1024 794.77 1024 512C1024 229.23 794.77 0 512 0C229.23 0 0 229.23 0 512C0 794.77 229.23 1024 512 1024Z" fill="#A0A5AF"/>
<path d="M333.9 435.801H383.5L381.5 440.901C380.4 443.701 367.6 478.601 352.8 518.301L326 590.501L299.6 590.701L273.1 591.001L244.1 514.301C228.2 472.101 215 437.101 214.8 436.701C214.6 436.201 226 435.801 240 435.801H265.5L268.9 446.801C270.9 452.901 278.5 477.501 286 501.501C293.6 525.501 299.8 544.701 300.1 544.201C300.4 543.701 308 519.201 317.2 489.501L333.9 435.801ZM420.4 434.301C402.2 437.201 388.9 446.901 382.8 461.401C379.7 469.001 376.8 481.401 378 482.601C378.8 483.401 420.1 486.801 421.2 486.101C421.6 485.901 421.9 484.601 421.9 483.401C421.9 479.701 425.6 470.701 428.1 468.401C431.1 465.501 436.9 463.301 441.3 463.301C448.4 463.401 455.9 468.301 458.2 474.401C462.3 485.101 455.3 495.201 430.5 514.201C403.2 535.001 389.5 549.101 382.4 563.901C378.6 571.701 375.2 581.901 374.6 587.101L374.3 590.501H503.9L504.2 573.001L504.4 555.601H470.8L437.1 555.501L442.5 550.701C445.4 548.001 451.4 543.301 455.8 540.201C477.6 524.801 488.3 515.401 494.3 506.101C503.5 492.101 505.3 473.901 498.6 459.901C492.8 447.601 482.7 439.801 467.4 435.801C457 433.001 432.9 432.201 420.4 434.301ZM782.9 549.901C769 528.701 757.6 511.101 757.6 510.801C757.6 510.401 768.2 493.601 781.2 473.501C794.2 453.301 804.8 436.501 804.8 436.201C804.8 435.901 792.9 435.701 778.5 435.701H752.2L739.5 458.301C732.6 470.801 726.6 481.101 726.2 481.401C725.9 481.601 719.6 471.401 712.4 458.801L699.2 435.701H672.5C657.8 435.701 645.7 435.901 645.7 436.101C645.7 436.301 656.4 452.801 669.5 472.701C682.6 492.501 693.2 509.301 693.2 510.001C693.2 510.701 682.4 527.401 669.2 547.201L645.2 583.201L644.9 569.401L644.6 555.501L603.7 555.301L562.8 555.001V525.501L599.9 525.201L636.9 525.001L636.7 509.001L636.4 493.101L599.4 492.801L562.3 492.601V469.001H642.8V435.601H514.1V590.701L604.6 590.501L695.1 590.201L709.6 566.601C717.7 553.601 724.4 542.901 724.9 542.801C725.3 542.601 732.2 553.301 740.3 566.601L754.9 590.601H782.3C803.9 590.601 809.5 590.301 808.9 589.301C808.6 589.001 796.9 571.101 782.9 549.901Z" fill="white"/>
</g>
<defs>
<clipPath id="clip0_3_317">
<rect width="1024" height="1024" fill="white"/>
</clipPath>
</defs>
</svg>

<svg xmlns="http://www.w3.org/2000/svg" width="1024" height="1024" fill="none">
   <g clip-path="url(#a)">
      <path fill="#A0A5AF" d="M512 1024c282.77 0 512-229.23 512-512S794.77 0 512 0 0 229.23 0 512s229.23 512 512 512Z"/>
      <path fill="#fff" d="M333.9 435.801h49.6l-2 5.1c-1.1 2.8-13.9 37.7-28.7 77.4l-26.8 72.2-26.4.2-26.5.3-29-76.7c-15.9-42.2-29.1-77.2-29.3-77.6-.2-.5 11.2-.9 25.2-.9h25.5l3.4 11c2 6.1 9.6 30.7 17.1 54.7 7.6 24 13.8 43.2 14.1 42.7.3-.5 7.9-25 17.1-54.7l16.7-53.7Zm86.5-1.5c-18.2 2.9-31.5 12.6-37.6 27.1-3.1 7.6-6 20-4.8 21.2.8.8 42.1 4.2 43.2 3.5.4-.2.7-1.5.7-2.7 0-3.7 3.7-12.7 6.2-15 3-2.9 8.8-5.1 13.2-5.1 7.1.1 14.6 5 16.9 11.1 4.1 10.7-2.9 20.8-27.7 39.8-27.3 20.8-41 34.9-48.1 49.7-3.8 7.8-7.2 18-7.8 23.2l-.3 3.4h129.6l.3-17.5.2-17.4h-33.6l-33.7-.1 5.4-4.8c2.9-2.7 8.9-7.4 13.3-10.5 21.8-15.4 32.5-24.8 38.5-34.1 9.2-14 11-32.2 4.3-46.2-5.8-12.3-15.9-20.1-31.2-24.1-10.4-2.8-34.5-3.6-47-1.5Zm362.5 115.6c-13.9-21.2-25.3-38.8-25.3-39.1 0-.4 10.6-17.2 23.6-37.3 13-20.2 23.6-37 23.6-37.3 0-.3-11.9-.5-26.3-.5h-26.3l-12.7 22.6c-6.9 12.5-12.9 22.8-13.3 23.1-.3.2-6.6-10-13.8-22.6l-13.2-23.1h-26.7c-14.7 0-26.8.2-26.8.4s10.7 16.7 23.8 36.6c13.1 19.8 23.7 36.6 23.7 37.3 0 .7-10.8 17.4-24 37.2l-24 36-.3-13.8-.3-13.9-40.9-.2-40.9-.3v-29.5l37.1-.3 37-.2-.2-16-.3-15.9-37-.3-37.1-.2v-23.6h80.5v-33.4H514.1v155.1l90.5-.2 90.5-.3 14.5-23.6c8.1-13 14.8-23.7 15.3-23.8.4-.2 7.3 10.5 15.4 23.8l14.6 24h27.4c21.6 0 27.2-.3 26.6-1.3-.3-.3-12-18.2-26-39.4Z"/>
   </g>
   <defs>
      <clipPath id="a">
         <path fill="#fff" d="M0 0h1024v1024H0z"/>
      </clipPath>
   </defs>
</svg>
